X:1
T:The Tar Road to Sligo
M:6/8
L:1/8
C:arr. T. Traub 11-3-02
R:Dbl Jig
K:D
|: g|"Bm"fdB Bcd|"A"ecA BAG|"D"FGA ABc|"G"dcd "A"efg|
"Bm"fdB Bcd |"A"ecA BAG|"A"FGA Aag|"A"fdc "D"d2 :|
B |"D"Adf Adf|"Em"gfg "A"efg|"D"afd "Bm"dcd|"Em"Bed "A"cBA|
"D"Adf Adf|"Em"gfg "A"efg|"D"a^ga "G"bge|"A"edc "D"d2 B|
"D"Adf Adf|"Em"gfg "A"efg|"D"afd dcd|"Em"Bed "A"cBA|
"Bm"fdB "Em"gec|"D"afd "G"bge|"D"a^ga "G"bge|"A"edc "D"d2 |]
